X:6557
T:The Boar's Head
O:england
P:AAB
S:Vic
M:4/4
L:1/4
K:C
G|"C"c2 cc|"G"Bc "C"G3/2E/2|"F"FF "Dm"AF|"G"GA/2B/2 "C"c:|
"C"ee "G"dd|"Am"AA "Em"G3/2E/2|"F"FF "Dm"AF|"G"GA/2B/2 "C"c||
